X: 18796
T: If We Hadn't Any Women In The World
R: barndance
M: 4/4
K: Gmajor
Bc|:dedB GABG|EAGE D2zA|BGBd gedB|A2 AG A zBc|
dedB GABG|EAGE D2zA|Bd z B AGAB|1 G2 GF G z Bc:|2 G2 GF GABd||
|:deef g2 gf|edd^c d z (3Bcd|edBd gedB|A2 AG A z Bc|
d<gdB GABG|EAGE D2zA|Bd z B AGAB|1 G2 GF GABd:|2 G2 GF G2||

